!!!!SEGMENT: pl-gd--ee-1638--002-011_marenzio-luca--motettorum-pro-festis-totius-anni-in-festo-pentecostes-hodie-completi-sunt-dies.krn
!!!cenid: 15xx:1014
!!!COM: Marenzio, Luca
!!!COM-rismID: pe30003955
!!!CDT: ~1553-1599/08/22
!!!CNT: Italian
!!!GTL: Motettorum pro festis totius anni
!!!OTL: In festo Pentecostes/Hodie completi sunt dies
!!!OMV: 011
!!!PDT: 1588
!!!AGN:
!!!YEC: Copyright 2022 Narodowy Instytut Fryderyka Chopina (https://polishscores.org)
!!!YEM: License CC-BY-4.0 (https://creativecommons.org/licenses/by/4.0)
!!!SMS-siglum: PL-GD
!!!SMS-shelfmark: Ee 1638
!!!SMS-shelfwork: 002-011 G
!!!SMS-variant:
!!!SMS-altvar:
!!!NIFC-rismSourceID: 1001202747
!!!NIFC-rismChildID: 990039238
!!!NIFC-islandoraID: pl-gd:57883
!!!URL-pdf-islandora: https://repozytorium.nifc.pl/islandora/object/pl-gd%3A57883/datastream/PDF/view
!!!URL-scan: https://polish.musicsources.pl/pl/lokalizacje/galeria/klocki-introligatorskie/655 @EN{Scan on Polish Music Sources Website} @PL{Skany w portalu Dziedzictwo Muzyki Polskiej w otwartym dostępie}
!!!IIIF: https://repozytorium.nifc.pl/islandora/object/pl-gd%3A57883/datastream/IIIF/view
!!!ONB-nifc: UWAGA: Cantus: s. 621 (od 2 ostatnich systemów po lewej), Altus: s. 469, Tenor: s. 317, Bassus: s. 165 (prawa)
!!!AIN: 1 alto 1 bass 1 soprn 1 tenor
!!!key: C:ion
**kern	**text	**kern	**text	**kern	**text	**kern	**text
*part4	*part4	*part3	*part3	*part2	*part2	*part1	*part1
*staff4	*staff4	*staff3	*staff3	*staff2	*staff2	*staff1	*staff1
*I"BASSVS	*	*I"TENOR	*	*I"ALTVS	*	*I"CANTVS	*
*mI"Basso	*	*mI"Tenore	*	*mI"Alto	*	*mI"Soprano	*
*I'B	*	*I'T	*	*I'A	*	*I'S	*
*Ibass	*	*Itenor	*	*Ialto	*	*Isoprn	*
*ICvox	*	*ICvox	*	*ICvox	*	*ICvox	*
*clefF4	*	*clefC4	*	*clefC3	*	*clefC1	*
*	*	*mclefGv2	*	*mclefG2	*	*mclefG2	*
*k[]	*	*k[]	*	*k[]	*	*k[]	*
*C:ion	*	*C:ion	*	*C:ion	*	*C:ion	*
*M2/1	*	*M2/1	*	*M2/1	*	*M2/1	*
*met(C|)	*	*met(C|)	*	*met(C|)	*	*met(C|)	*
*mmet(c|)	*	*mmet(c|)	*	*mmet(c|)	*	*mmet(c|)	*
=1-	=1-	=1-	=1-	=1-	=1-	=1-	=1-
*xywh-#165:4557,550,3544,817	*	*xywh-#317:992,3825,3461,786	*	*xywh-#469:1010,3925,3471,713	*	*xywh-#621:1069,3843,3435,776	*
!LO:TX:a:i:mod= :t=In feſto Pentecoſtes.	!LO:SIC:o=HO-	!	!	!	!	!	!LO:SIC:o=HO-
1.C	Ho-	1r	.	1r	.	1.e	Ho-
!	!	!	!LO:SIC:o=HO-	!	!LO:SIC:o=HO-	!	!
.	.	1.c	Ho-	1.e	Ho-	.	.
2D/	-di-	.	.	.	.	2f/	-di-
=2-	=2-	=2-	=2-	=2-	=2-	=2-	=2-
1E	-e	.	.	.	.	1g	-e
.	.	2B\	-di-	2d\	-di-	.	.
2r	.	1A	-e	1c	-e	2r	.
!	!LO:SIC:o=Ho-	!	!	!	!	!	!LO:SIC:o=Ho-
1A\	ho-	.	.	.	.	1cc\	ho-
=3-	=3-	=3-	=3-	=3-	=3-	=3-	=3-
!	!	!	!LO:SIC:o=Ho-	!	!LO:SIC:o=Ho-	!	!
.	.	1.c	ho-	1.A	ho-	.	.
2G\	-di-	.	.	.	.	2b\	-di-
1F	-e	.	.	.	.	1a	-e
.	.	2d\	-di-	2B/	-di-	.	.
=4-	=4-	=4-	=4-	=4-	=4-	=4-	=4-
0C	com-	1e	-e	1c	-e	0g	com-
.	.	2c\	com-	1e	com-	.	.
.	.	1c\	-ple-	.	.	.	.
=5-	=5-	=5-	=5-	=5-	=5-	=5-	=5-
1.G	-ple-	.	.	1.d	-ple-	1.g	-ple-
.	.	4B\	.	.	.	.	.
.	.	4A/	.	.	.	.	.
.	.	2B\	.	.	.	.	.
2C/	-ti	2c\	-ti	2e\	-ti	2g/	-ti
=6-	=6-	=6-	=6-	=6-	=6-	=6-	=6-
1C	ſunt	1c	ſunt	2.e\	ſunt	1g	ſunt
.	.	.	.	4d\	.	.	.
2.F\	di-	2.A/	di-	1c	.	2.a\	di-
4E\	-es	4e\	-es	.	.	4g/	-es
=7-	=7-	=7-	=7-	=7-	=7-	=7-	=7-
2F\	Pen-	2d\	Pen-	1r	.	2a\	Pen-
2G\	-te-	2d\	-te-	.	.	2b\	-te-
0A	-coſ-	0c	-coſ-	2.e\	di-	0cc	-coſ-
.	.	.	.	4d\	-es	.	.
=8-	=8-	=8-	=8-	=8-	=8-	=8-	=8-
.	.	.	.	2e\	Pen-	.	.
!	!	!	!	!LO:SIC:v:o=2f\	!	!	!
.	.	.	.	2f#i	-te-	.	.
*	*	*custos:d	*	*	*	*	*
*	*	*xywh-#317:960,4335,3461,859	*	*	*	*	*
!	!	!LO:LB:g=original	!	!	!	!	!
0G	-tes	1d	-tes	1g	-coſ-	1b	-tes
=9-	=9-	=9-	=9-	=9-	=9-	=9-	=9-
.	.	2r	.	1d	-tes	2r	.
.	.	2B\	Al-	.	.	2g/	Al-
1r	.	4c\	-le-	1r	.	4e/	-le-
.	.	4d\	.	.	.	4f/	.
*	*	*	*	*	*	*custos:g	*
*	*	*	*	*	*	*xywh-#621:907,4393,3571,841	*
!	!	!	!	!	!	!LO:LB:g=original	!
.	.	4e\	.	.	.	4g/	.
.	.	4c\	.	.	.	4e/	.
*custos:D	*	*	*	*custos:d	*	*	*
!LO:LB:g=original	!	!	!	!LO:LB:g=original	!	!	!
=10-	=10-	=10-	=10-	=10-	=10-	=10-	=10-
*xywh-#165:4557,1265,3489,644	*	*	*	*xywh-#469:1028,4517,3441,749	*	*	*
2r	.	4d\	.	2r	.	4f/	.
.	.	4e\	.	.	.	4g/	.
2D/	Al-	2f\	.	2d\	Al-	4a\	.
.	.	.	.	.	.	4b\	.
4E\	-le-	1e	-lu-	4G/	-le-	2cc\	.
4F\	.	.	.	4A/	.	.	.
4G\	.	.	.	4B/	.	2b\	-lu-
4E\	.	.	.	4G/	.	.	.
=11-	=11-	=11-	=11-	=11-	=11-	=11-	=11-
4F\	.	1c	-ia	4A/	.	1a	-ia
4G\	.	.	.	4B/	.	.	.
4A\	.	.	.	4c/	.	.	.
4B\	.	.	.	4d\	.	.	.
2c\	.	2r	.	2e\	.	2r	.
*	*	*	*ij	*	*	*	*ij
!	!	!	!LO:SIC:o=Al-	!	!	!	!LO:SIC:o=Al-
2B\	-lu-	2G/	al-	2d\	-lu-	2g/	al-
=12-	=12-	=12-	=12-	=12-	=12-	=12-	=12-
2A\	-ia	4c\	-le-	1e	-ia	4a\	-le-
.	.	4d\	.	.	.	4b\	.
*	*ij	*	*	*	*	*	*
!	!LO:SIC:o=Al-	!	!	!	!	!	!
2A\	al-	4e\	.	.	.	4cc\	.
.	.	4c\	.	.	.	4a\	.
2G\	-le-	4d\	.	2r	.	4b\	.
.	.	4e\	.	.	.	4cc\	.
*	*	*	*	*	*ij	*	*
!	!	!	!	!	!LO:SIC:o=Al-	!	!
2F\	lu-	2.f\	.	2a\	al-	2.dd\	.
=13-	=13-	=13-	=13-	=13-	=13-	=13-	=13-
*lig	*	*	*	*	*	*	*
1A	-ia	.	.	4a\	-le-	.	.
*	*Xij	*	*	*	*	*	*
.	.	4e\	.	8g\	.	4cc\	.
.	.	.	.	8f\	.	.	.
.	.	4e\	.	4e\	.	1cc	.
!	!	!	!	!LO:SIC:v:o=4f\	!	!	!
.	.	8d\	.	4f#i	.	.	.
.	.	8c\	.	.	.	.	.
1G	.	2.d\	.	2g\	.	.	.
.	.	.	.	2g\	-lu-	2b\	-lu-
.	.	4d\	-lu-	.	.	.	.
*Xlig	*	*custos:c	*	*	*	*custos:cc	*
!	!	!LO:PB:g=original	!	!	!	!LO:PB:g=original	!
=14-	=14-	=14-	=14-	=14-	=14-	=14-	=14-
*	*	*xywh-#317:4567,501,3485,802	*	*	*	*xywh-#621:4562,524,3532,815	*
1r	.	1c	-ia	1e	-ia	1cc	-ia
*	*	*	*Xij	*	*Xij	*	*Xij
1.C	Ho-	2r	.	2r	.	1.g	Ho-
.	.	1c\	Ho-	1e\	Ho-	.	.
=15-	=15-	=15-	=15-	=15-	=15-	=15-	=15-
!	!	!LO:TX:a:i:mod= :t=In feſto Pentecoſtes.	!	!	!	!	!
2C/	-di-	2c\	-di-	2e\	-di-	2g/	-di-
1C	-e	1c	-e	1e	-e	1g	-e
=16-	=16-	=16-	=16-	=16-	=16-	=16-	=16-
!	!	!	!	!	!	!LO:TX:a:i:mod= :t=In feſto Pentecoſtes.	!
1.F	Spi-	1.c	Spi-	1.f	Spi-	1.a	Spi-
2D/	-ri-	2d\	-ri-	2f\	-ri-	2a\	-ri-
*	*	*	*	*custos:f	*	*	*
!	!	!	!	!LO:PB:g=original	!	!	!
=17-	=17-	=17-	=17-	=17-	=17-	=17-	=17-
*	*	*	*	*xywh-#469:4512,538,3507,846	*	*	*
1F	-tus	1c	-tus	1.f	-tus	1a	-tus
*custos:B	*	*	*	*	*	*	*
*xywh-#165:4564,1760,3599,675	*	*	*	*	*	*	*
!LO:LB:g=original	!	!	!	!	!	!	!
!LO:SIC:v:o=2.B\	!LO:SIC:o=ſan-	!	!LO:SIC:o=ſan-	!	!	!LO:MO:mod=[1b-	!LO:SIC:o=ſan-
2.B-i	San-	2.d\	San-	.	.	0b-X	San-
!	!	!	!	!	!LO:SIC:o=ſan-	!	!
.	.	.	.	2.f\	San-	.	.
4A\	.	4c\	.	.	.	.	.
=18-	=18-	=18-	=18-	=18-	=18-	=18-	=18-
!	!	!	!	!	!	!LO:MO:null:mod=1b-]	!
1G	.	1B-X	.	.	.	.	.
!	!	!	!	!LO:SIC:o=8e\	!	!	!
.	.	.	.	8eL	.	.	.
!	!	!	!	!LO:SIC:o=8d\	!	!	!
!	!	!	!	!LO:TX:a:i:mod= :t=In feſto Pentecoſtes.	!	!	!
.	.	.	.	8dJ	.	.	.
.	.	.	.	2e\	.	.	.
1F	-ctus	1c	-ctus	1f	-ctus	1a	-ctus
=19-	=19-	=19-	=19-	=19-	=19-	=19-	=19-
2C/	in	2c\	in	2e\	in	2g/	in
1G	i-	1Bny	i-	1d	i-	1g	i-
2D/	-gne	2A/	-gne	2d\	-gne	2f/	-gne
=20-	=20-	=20-	=20-	=20-	=20-	=20-	=20-
2E\	di-	2G#X/	di-	2B/	di-	2e/	di-
2.E\	-ſci-	2.G#/	-ſci-	2.B/	-ſci-	2.e/	-ſci-
4E\	-pu-	4G#/	-pu-	4B/	-pu-	4e/	-pu-
2AA/	-lis	2A/	-lis	2c/	-lis	2e/	-lis
=21-	=21-	=21-	=21-	=21-	=21-	=21-	=21-
2D/	ap-	1F	ap-	1A	ap-	2f/	ap-
1F	-pa-	.	.	.	.	1a	-pa-
.	.	2A/	-pa-	2c/	-pa-	.	.
2C/	-ru-	1c\	-ru-	2e\	-ru-	2g/	-ru-
=22-	=22-	=22-	=22-	=22-	=22-	=22-	=22-
0G	-it	.	.	0d	-it	0.g	-it
.	.	4B\	.	.	.	.	.
.	.	4A/	.	.	.	.	.
*	*	*custos:B	*	*	*	*	*
*	*	*xywh-#317:4575,1134,3493,745	*	*	*	*	*
!	!	!LO:LB:g=original	!	!	!	!	!
.	.	1B	-it	.	.	.	.
=23-	=23-	=23-	=23-	=23-	=23-	=23-	=23-
1C	et	2r	.	0r	.	.	.
.	.	2c\	et	.	.	.	.
2.F\	tri-	2.A/	tri-	.	.	1r	.
4F\	-bu-	4A/	-bu-	.	.	.	.
=24-	=24-	=24-	=24-	=24-	=24-	=24-	=24-
2E\	-it	2Gny/	-it	2r	.	1ee	et
2A\	e-	2c\	e-	2e\	et	.	.
1G	-is	1d	-is	2.g\	tri-	2.bny\	tri-
.	.	.	.	4g\	-bu-	4b\	-bu-
*	*	*	*	*	*	*custos:cc	*
!	!	!	!	!	!	!LO:LB:g=original	!
=25-	=25-	=25-	=25-	=25-	=25-	=25-	=25-
*	*	*	*	*	*	*xywh-#621:4588,1203,3442,646	*
2r	.	2r	.	2a\	-it	2cc\	-it
*	*	*	*ij	*	*	*	*
2C/	et	2c\	et	2e\	e-	2g/	e-
2.AA/	tri-	2.c\	tri-	1e	-is	1a	-is
4AA/	-bu-	4c\	-bu-	.	.	.	.
*custos:GG	*	*	*	*custos:g	*	*	*
!LO:LB:g=original	!	!	!	!LO:LB:g=original	!	!	!
=26-	=26-	=26-	=26-	=26-	=26-	=26-	=26-
*xywh-#165:4572,2318,3497,644	*	*	*	*xywh-#469:4499,1234,3471,683	*	*	*
2GG/	-it	2B\	-it	2r	.	2r	.
*	*	*	*	*	*ij	*	*ij
2C/	e-	2e\	e-	2g\	et	2cc\	et
1D	-is	2d\	-is	2.f\	tri-	2.a\	tri-
*	*	*	*Xij	*	*	*	*
.	.	2d\	cha-	.	.	.	.
.	.	.	.	4f\	-bu-	4a\	-bu-
=27-	=27-	=27-	=27-	=27-	=27-	=27-	=27-
2r	.	2G/	-ri-	2e\	-it	2g/	-it
*	*ij	*	*	*	*	*	*
2F\	et	2A/	-ſma-	1f	e-	2cc\	e-
2.D/	tri-	1B	-tum	.	.	2dd\	-is
*	*	*	*	*	*	*	*Xij
.	.	.	.	2d\	-is	2dd\	cha-
4D/	-bu-	.	.	.	.	.	.
=28-	=28-	=28-	=28-	=28-	=28-	=28-	=28-
*	*	*lig	*	*	*	*	*
2C/	-it	1c	do-	2r	.	2g/	-riſ-
2F\	e-	.	.	2f\	et	2a\	-ma-
2G\	-is	1B	.	2.d\	tri-	1b	-tum
*	*Xij	*	*	*	*	*	*
2G\	cha-	.	.	.	.	.	.
.	.	.	.	4d\	-bu-	.	.
*	*	*Xlig	*	*	*	*	*
=29-	=29-	=29-	=29-	=29-	=29-	=29-	=29-
*	*	*	*	*	*	*lig	*
2C/	-riſ-	1A	-na	2c/	-it	1cc	do-
2D/	-ma-	.	.	2f\	e-	.	.
1E	-tum	1r	.	2g\	-is	1b	.
*	*	*	*	*	*Xij	*	*
.	.	.	.	2g\	cha-	.	.
*	*	*	*	*	*	*Xlig	*
=30-	=30-	=30-	=30-	=30-	=30-	=30-	=30-
*lig	*	*	*	*	*	*	*
1F	do-	0r	.	2c/	-riſ-	1a	-na
.	.	.	.	2d\	-ma-	.	.
1E	.	.	.	1e	-tum	4g/	mi-
.	.	.	.	.	.	4a\	.
.	.	.	.	.	.	4b\	.
.	.	.	.	.	.	4cc\	.
*Xlig	*	*	*	*	*	*	*
=31-	=31-	=31-	=31-	=31-	=31-	=31-	=31-
*	*	*	*	*lig	*	*	*
1D	-na	2r	.	1f	do-	2dd\	.
.	.	2d\	cha-	.	.	4a\	-ſit
.	.	.	.	.	.	2dd\	e-
*	*	*custos:G	*	*	*	*	*
*	*	*xywh-#317:4567,1774,3436,640	*	*	*	*	*
!	!	!LO:LB:g=original	!	!	!	!	!
1r	.	2G/	-ri-	1e	.	.	.
*	*	*	*	*	*	*custos:cc	*
*	*	*	*	*	*	*xywh-#621:4582,1740,3344,679	*
!	!	!	!	!	!	!LO:LB:g=original	!
!	!	!	!	!	!	!LO:SIC:v:o=8cc\	!
.	.	.	.	.	.	8cc#i	.
.	.	.	.	.	.	8b\	.
.	.	2A/	-ſma-	.	.	2cc#X\	.
*	*	*	*	*Xlig	*	*	*
=32-	=32-	=32-	=32-	=32-	=32-	=32-	=32-
00r	.	1B	-tum	1d	-na	2dd\	-os
.	.	.	.	.	.	2dd\	cha-
*	*	*lig	*	*	*	*	*
.	.	1c	do-	4c\	mi-	2g/	-riſ-
.	.	.	.	4d\	.	.	.
.	.	.	.	4e\	.	2a\	-ma-
.	.	.	.	4f\	.	.	.
*	*	*	*	*custos:g	*	*	*
!	!	!	!	!LO:LB:g=original	!	!	!
=33-	=33-	=33-	=33-	=33-	=33-	=33-	=33-
*	*	*	*	*xywh-#469:4542,1808,3380,641	*	*	*
.	.	1B	.	2g\	.	1b	-tum
.	.	.	.	4d\	-ſit	.	.
.	.	.	.	2g\	e-	.	.
*	*	*Xlig	*	*	*	*lig	*
.	.	1A	-na	.	.	1ccny	do-
!	!	!	!	!LO:SIC:v:o=8f\	!	!	!
.	.	.	.	8f#i	.	.	.
.	.	.	.	8e\	.	.	.
.	.	.	.	2f#X\	.	.	.
=34-	=34-	=34-	=34-	=34-	=34-	=34-	=34-
1r	.	4G/	mi-	2g\	-os	1b	.
.	.	4A/	.	.	.	.	.
.	.	4B\	.	2d\	in	.	.
.	.	4c\	.	.	.	.	.
*	*	*	*	*	*	*Xlig	*
1D	in	2d\	.	2.fny\	v-	0a	-na
.	.	4A/	-ſit	.	.	.	.
.	.	2d\	e-	4f\	-ni-	.	.
=35-	=35-	=35-	=35-	=35-	=35-	=35-	=35-
!	!LO:SIC:o=v-	!	!	!	!	!	!
2.A\	u-	.	.	2e\	-uer-	.	.
!	!	!LO:SIC:v:o=8c\	!	!	!	!	!
.	.	8c#i	.	.	.	.	.
.	.	8B\	.	.	.	.	.
!	!	!	!	!LO:SIC:v:o=2f\	!	!	!
.	.	2c#X\	.	2f#i	-ſum	.	.
4A\	-ni-	.	.	.	.	.	.
!	!LO:SIC:o=-uer-	!	!	!	!	!	!
2G\	-ver-	2d\	-os	2g\	mun-	1r	.
2F\	-ſum	2A/	in	2c/	-dum	.	.
=36-	=36-	=36-	=36-	=36-	=36-	=36-	=36-
!	!	!	!LO:SIC:o=v-	!	!	!	!
4E\	mun-	2.e\	u-	2c/	prae-	4g/	mi-
4F\	.	.	.	.	.	4a\	.
4G\	.	.	.	2B/	-di-	4b\	.
4E\	.	4e\	-ni-	.	.	4cc\	.
*custos:F	*	*	*	*	*	*	*
*xywh-#165:4580,2821,3434,691	*	*	*	*	*	*	*
!LO:LB:g=original	!	!	!LO:SIC:o=-uer-	!	!	!	!
2.F\	.	2d\	-ver-	0A	-ca-	2dd\	.
.	.	2f\	-ſum	.	.	4a\	-ſit
4D/	.	.	.	.	.	2dd\	e-
=37-	=37-	=37-	=37-	=37-	=37-	=37-	=37-
1A	.	1e	mun-	.	.	.	.
!	!	!	!	!	!	!LO:SIC:v:o=8cc\	!
.	.	.	.	.	.	8cc#i	.
.	.	.	.	.	.	8b\	.
.	.	.	.	.	.	2cc#X\	.
1D	-dum	1d	-dum	1A	-re	2dd\	-os
.	.	.	.	.	.	2d/	in
=38-	=38-	=38-	=38-	=38-	=38-	=38-	=38-
!	!	!	!	!	!	!	!LO:SIC:o=v-
00r	.	1r	.	4A/	mi-	2.a\	u-
.	.	.	.	4B/	.	.	.
.	.	.	.	4c/	.	.	.
.	.	.	.	4d\	.	4a\	-ni-
*	*	*	*	*	*	*custos:g	*
*	*	*	*	*	*	*xywh-#621:4614,2297,3377,646	*
!	!	!	!	!	!	!LO:LB:g=original	!LO:SIC:o=-uer-
.	.	2r	.	2e\	.	2g/	-ver-
.	.	2D/	in	4A/	-ſit	2f/	-ſum
.	.	.	.	2d\	e-	.	.
*	*	*custos:A	*	*custos:c	*	*	*
!	!	!LO:LB:g=original	!	!LO:LB:g=original	!	!	!
=39-	=39-	=39-	=39-	=39-	=39-	=39-	=39-
*	*	*xywh-#317:4559,2276,3412,705	*	*xywh-#469:4524,2285,3447,731	*	*	*
!	!	!	!LO:SIC:o=v-	!	!	!	!
.	.	2.A/	u-	.	.	2.e/	mun-
!	!	!	!	!LO:SIC:v:o=8c/	!	!	!
.	.	.	.	8c#i	.	.	.
.	.	.	.	8B/	.	.	.
.	.	.	.	2c#X/	.	.	.
!	!	!	!	!	!	!LO:SIC:v:o=4f/	!
.	.	4A/	-ni-	.	.	4f#i	.
!	!	!	!LO:SIC:o=-uer-	!	!	!	!
.	.	2G/	-ver-	2d\	-os	4g/	.
.	.	.	.	.	.	4d/	.
.	.	2F/	-ſum	2A/	in	2a\	.
=40-	=40-	=40-	=40-	=40-	=40-	=40-	=40-
1r	.	4E/	mun-	2.e\	u-	4g/	-dum
.	.	4F/	.	.	.	4a\	.
.	.	4G/	.	.	.	4b\	.
.	.	4E/	.	4e\	-ni-	4g/	.
!	!	!	!	!	!LO:SIC:o=-uer-	!	!
2r	.	4F/	.	2d\	-ver-	2a\	.
.	.	4G/	.	.	.	.	.
*	*ij	*	*	*	*	*	*
2AA/	in	2.A/	.	1cny\	-ſum	2e/	in
=41-	=41-	=41-	=41-	=41-	=41-	=41-	=41-
!	!LO:SIC:o=v-	!	!	!	!	!	!LO:SIC:o=v-
2.E\	u-	.	.	.	.	2.e/	u-
.	.	4G#X/	.	.	.	.	.
.	.	2G#/	.	2.B/	mun-	.	.
4E\	-ni-	.	.	.	.	4e/	-ni-
*	*	*lig	*	*	*	*	*
!	!LO:SIC:o=-uer-	!	!	!	!	!	!LO:SIC:o=-uer-
2D/	-ver-	1A	-dum	.	.	2f/	-ver-
.	.	.	.	4A/	.	.	.
2C/	-ſum	.	.	2.A/	.	2e/	-ſum
=42-	=42-	=42-	=42-	=42-	=42-	=42-	=42-
1BB	mun-	1B	.	.	.	1d	mun-
.	.	.	.	4G#X/	.	.	.
.	.	.	.	2G#/	.	.	.
*	*	*Xlig	*	*	*	*	*
!	!	!	!	!	!	!	!LO:SIC:o=-du(m)
2AA/	-dum	2r	.	1A	-dum	1c	-dum
*	*Xij	*	*	*	*	*	*
1F\	prae-	1A\	prae-	.	.	.	.
=43-	=43-	=43-	=43-	=43-	=43-	=43-	=43-
.	.	.	.	2r	.	2d/	prae-
2E\	-di-	2Gny/	-di-	1c	prae-	2e/	-di-
0D	-ca-	0d	-ca-	.	.	2f#X/	-ca-
.	.	.	.	2B/	-di-	2.g/	.
=44-	=44-	=44-	=44-	=44-	=44-	=44-	=44-
.	.	.	.	1A	-ca-	.	.
!	!	!	!	!	!	!LO:SIC:v:o=8fny/	!
.	.	.	.	.	.	8f#i	.
.	.	.	.	.	.	8e/	.
*	*	*	*	*	*	*custos:f	*
*	*	*	*	*	*	*xywh-#621:4582,2853,3370,621	*
!	!	!	!	!	!	!LO:LB:g=original	!
.	.	.	.	.	.	2f#X/	.
2GG/	-re	1B	-re	1Gny	-re	1g	-re
2.G\	et	.	.	.	.	.	.
=45-	=45-	=45-	=45-	=45-	=45-	=45-	=45-
.	.	2.d\	et	00r	.	00r	.
4F\	te-	.	.	.	.	.	.
2G\	-ſti-	.	.	.	.	.	.
.	.	4B\	te-	.	.	.	.
2E\	-fi-	1cny	-ſti-	.	.	.	.
2.F\	-ca-	.	.	.	.	.	.
*	*	*custos:A	*	*	*	*	*
!	!	!LO:LB:g=original	!	!	!	!	!
=46-	=46-	=46-	=46-	=46-	=46-	=46-	=46-
*	*	*xywh-#317:4534,2828,3469,672	*	*	*	*	*
.	.	2A/	-fi-	.	.	.	.
4E\	.	.	.	.	.	.	.
4D/	.	2.c\	-ca-	.	.	.	.
4C/	.	.	.	.	.	.	.
1D	.	.	.	.	.	.	.
.	.	8B\	.	.	.	.	.
.	.	8A\	.	.	.	.	.
.	.	2B\	.	.	.	.	.
*custos:C	*	*	*	*	*	*	*
!LO:LB:g=original	!	!	!	!	!	!	!
=47-	=47-	=47-	=47-	=47-	=47-	=47-	=47-
*xywh-#165:4596,3419,3536,644	*	*	*	*	*	*	*
0C	-ri	0c	-ri	1r	.	1r	.
.	.	.	.	2.e\	qui	2.g/	qui
.	.	.	.	4c/	cre-	4e/	cre-
*	*	*	*	*custos:d	*	*	*
!	!	!	!	!LO:LB:g=original	!	!	!
=48-	=48-	=48-	=48-	=48-	=48-	=48-	=48-
*	*	*	*	*xywh-#469:4518,2854,3495,731	*	*	*
1r	.	1r	.	2d\	-di-	2fny/	-di-
.	.	.	.	2e\	-de-	2g/	-de-
2.F\	qui	2.A/	qui	1f	-rit	1c	-rit
4A\	cre-	4c\	cre-	.	.	.	.
=49-	=49-	=49-	=49-	=49-	=49-	=49-	=49-
2G\	-di-	2B\	-di-	1r	.	1r	.
2F\	-de-	2A/	-de-	.	.	.	.
*	*	*	*	*	*ij	*	*ij
1E	-rit	1e	-rit	2.g\	qui	2.b\	qui
.	.	.	.	4e\	cre-	4g/	cre-
=50-	=50-	=50-	=50-	=50-	=50-	=50-	=50-
2r	.	1r	.	2f\	-di-	2a\	-di-
2G\	et	.	.	2g\	-de-	2b\	-de-
2A\	ba-	2r	.	1c	-rit	2ccny\	-rit
*	*	*	*	*	*Xij	*	*Xij
2F\	-pti-	2A/	et	.	.	2a\	et
=51-	=51-	=51-	=51-	=51-	=51-	=51-	=51-
2.G\	-za-	2d\	ba-	0r	.	2b\	ba-
.	.	2B\	-pti-	.	.	2g/	-pti-
4G\	-tus	.	.	.	.	.	.
2F\	fu-	2.c\	-za-	.	.	2a\	-za-
2E\	-e-	.	.	.	.	2g/	-tus
.	.	4c\	-tus	.	.	.	.
=52-	=52-	=52-	=52-	=52-	=52-	=52-	=52-
1D	-rit	2B\	fu-	1r	.	2g/	fu-
.	.	2A/	-e-	.	.	2f#X/	-e-
1r	.	1G	-rit	2r	.	0g	-rit
.	.	.	.	2d\	et	.	.
=53-	=53-	=53-	=53-	=53-	=53-	=53-	=53-
1r	.	2r	.	2e\	ba-	.	.
.	.	1e	ſal-	2c/	-pti-	.	.
1E	ſal-	.	.	2.g\	-za-	1r	.
!	!	!	!LO:SIC:o=-uus	!	!	!	!
.	.	2B\	-vus	.	.	.	.
.	.	.	.	4g\	-tus	.	.
*	*	*custos:d	*	*	*	*	*
!	!	!LO:LB:g=original	!	!	!	!	!
=54-	=54-	=54-	=54-	=54-	=54-	=54-	=54-
*	*	*xywh-#317:4567,3379,3428,729	*	*	*	*	*
!	!LO:SIC:o=-uus	!	!	!	!	!	!
1F	-vus	4d\	e-	2f\	fu-	1r	.
.	.	4c\	.	.	.	.	.
.	.	1c	.	2e\	-e-	.	.
*	*	*	*	*	*	*custos:dd	*
*	*	*	*	*	*	*xywh-#621:4588,3371,3409,685	*
!	!	!	!	!	!	!LO:LB:g=original	!
1G	e-	.	.	1d	-rit	2r	.
*	*	*	*	*	*	*	*ij
.	.	2B\	.	.	.	2dd\	et
=55-	=55-	=55-	=55-	=55-	=55-	=55-	=55-
1C	-rit	1c	-rit	2r	.	2ee\	ba-
.	.	.	.	2e\	ſal-	2cc\	-pti-
!	!	!	!	!	!LO:SIC:o=-uus	!	!
2r	.	1r	.	2f\	-vus	2.dd\	-za-
2G\	et	.	.	2g\	e-	.	.
.	.	.	.	.	.	4dd\	-tus
=56-	=56-	=56-	=56-	=56-	=56-	=56-	=56-
2A\	ba-	1r	.	2c/	-rit	1cc	fu-
*	*	*	*	*custos:f	*	*	*
*	*	*	*	*xywh-#469:4536,3417,3295,671	*ij	*	*
!	!	!	!	!LO:LB:g=original	!	!	!
2F\	-pti-	.	.	2f\	ſal-	.	.
*custos:G	*	*	*	*	*	*	*
*xywh-#165:4612,3953,3528,691	*	*	*ij	*	*	*	*
!LO:LB:g=original	!	!	!	!	!LO:SIC:o=-uus	!	!
2.G\	-za-	1B	ſal-	2d\	-vus	1b	-e-
.	.	.	.	2e\	e-	.	.
4G\	-tus	.	.	.	.	.	.
=57-	=57-	=57-	=57-	=57-	=57-	=57-	=57-
!	!	!	!LO:SIC:o=-uus	!	!	!	!
2F\	fu-	1c	-vus	2f\	.	0a	-rit
*	*	*	*	*	*	*	*Xij
2E\	-e-	.	.	2.g\	.	.	.
1D	-rit	1d	e-	.	.	.	.
!	!	!	!	!LO:SIC:v:o=8f\	!	!	!
.	.	.	.	8f#i	.	.	.
.	.	.	.	8e\	.	.	.
.	.	.	.	2f#X\	.	.	.
=58-	=58-	=58-	=58-	=58-	=58-	=58-	=58-
0r	.	1G	-rit	2g\	-rit	2r	.
*	*	*	*	*	*Xij	*	*
.	.	.	.	2d\	et	2b\	et
.	.	1r	.	2e\	ba-	2cc\	ba-
.	.	.	.	2c/	-pti-	2a\	-pti-
=59-	=59-	=59-	=59-	=59-	=59-	=59-	=59-
1BB	ſal-	0r	.	2.d\	-za-	2.b\	-za-
.	.	.	.	4d\	-tus	4b\	-tus
!	!LO:SIC:o=-uus	!	!	!	!	!	!
1C	-vus	.	.	2c/	fu-	2a\	fu-
.	.	.	.	2B/	-e-	2.g/	-e-
=60-	=60-	=60-	=60-	=60-	=60-	=60-	=60-
1D	e-	1r	.	1A	-rit	.	.
!	!	!	!	!	!	!LO:SIC:v:o=8fny/	!
.	.	.	.	.	.	8f#i	.
.	.	.	.	.	.	8e/	.
.	.	.	.	.	.	2f#X/	.
1GG	-rit	2r	.	1B	ſal-	1g	-rit
.	.	1G/	ſal-	.	.	.	.
=61-	=61-	=61-	=61-	=61-	=61-	=61-	=61-
!	!	!	!	!	!LO:SIC:o=-uus	!	!
1C	Al-	.	.	2.c/	-vus	1e	ſal-
!	!	!	!LO:SIC:o=-uus	!	!	!	!
.	.	1A	-vus	.	.	.	.
.	.	.	.	4B/	e-	.	.
!	!	!	!	!	!	!	!LO:SIC:o=-uus
1D	.	.	.	2A/	.	1fny	-vus
.	.	2.B\	e-	2.d\	.	.	.
*	*	*	*	*	*	*custos:e	*
!	!	!	!	!	!	!LO:LB:g=original	!
=62-	=62-	=62-	=62-	=62-	=62-	=62-	=62-
*	*	*	*	*	*	*xywh-#621:4627,3921,3403,640	*
0E	.	.	.	.	.	0e	e-
.	.	4A/	.	4c/	.	.	.
.	.	2.A/	.	4c/	.	.	.
*	*	*	*	*custos:B	*	*	*
*	*	*	*	*xywh-#469:4536,3961,3368,659	*	*	*
!	!	!	!	!LO:LB:g=original	!	!	!
.	.	.	.	8B/	.	.	.
.	.	.	.	8A/	.	.	.
.	.	.	.	1B	.	.	.
.	.	4G#X/	.	.	.	.	.
.	.	2G#/	.	.	.	.	.
=63-	=63-	=63-	=63-	=63-	=63-	=63-	=63-
1AA	.	1A	-rit	2A/	-rit	1e	-rit
*	*	*	*Xij	*	*	*	*
.	.	.	.	2.a\	Al-	.	.
2.A\	-le-	2.c\	Al-	.	.	2r	.
.	.	.	.	8g\	.	.	.
.	.	.	.	8fny\	.	.	.
.	.	.	.	1e\	.	2.ee\	Al-
8G\	.	4d\	.	.	.	.	.
8F\	.	.	.	.	.	.	.
=64-	=64-	=64-	=64-	=64-	=64-	=64-	=64-
1E\	.	2.e\	.	.	.	.	.
.	.	.	.	.	.	8dd\	.
.	.	.	.	.	.	8cc\	.
.	.	.	.	2.g\	-le-	1b	.
.	.	8d\	.	.	.	.	.
.	.	8c\	.	.	.	.	.
*	*	*custos:B	*	*	*	*	*
*	*	*xywh-#317:4502,3930,3493,664	*	*	*	*	*
!	!	!LO:LB:g=original	!	!	!	!	!
2.G\	-lu-	1B	.	.	.	.	.
.	.	.	.	8f\	.	.	.
.	.	.	.	8e\	.	.	.
.	.	.	.	1d\	.	2.dd\	-le-
8F\	.	.	.	.	.	.	.
8E\	.	.	.	.	.	.	.
=65-	=65-	=65-	=65-	=65-	=65-	=65-	=65-
1D\	.	2.d\	-le-	.	.	.	.
.	.	.	.	.	.	8cc\	.
.	.	.	.	.	.	8b\	.
.	.	.	.	2.f\	-lu-	1a	.
.	.	8c\	.	.	.	.	.
.	.	8B\	.	.	.	.	.
2.F\	.	2.A/	.	.	.	.	.
.	.	.	.	8e\	.	.	.
.	.	.	.	8d\	.	.	.
.	.	.	.	2.c/	.	2.cc\	-lu-
8E\	.	4B\	.	.	.	.	.
8D\	.	.	.	.	.	.	.
*custos:C	*	*	*	*	*	*	*
!LO:LB:g=original	!	!	!	!	!	!	!
=66-	=66-	=66-	=66-	=66-	=66-	=66-	=66-
*xywh-#165:4612,4519,3513,715	*	*	*	*	*	*	*
2.C/	.	1c	.	.	.	.	.
.	.	.	.	4d\	.	8b\	.
.	.	.	.	.	.	8a\	.
.	.	.	.	4e\	.	4g/	.
8BB/	.	.	.	4f\	.	4a\	.
8AA/	.	.	.	.	.	.	.
4GG/	.	1d	-lu-	2.g\	.	4b\	.
4AA/	.	.	.	.	.	4cc\	.
4BB/	.	.	.	.	.	2.dd\	.
4C/	.	.	.	8f\	.	.	.
.	.	.	.	8e\	.	.	.
=67-	=67-	=67-	=67-	=67-	=67-	=67-	=67-
2.D/	.	2.f\	-ia	4d\	.	.	.
.	.	.	.	4e\	.	8cc\	.
.	.	.	.	.	.	8b\	.
*	*	*	*	*custos:f	*	*custos:a	*
*	*	*	*	*xywh-#469:4487,4511,3380,677	*	*xywh-#621:4562,4413,3513,750	*
!	!	!	!	!LO:LB:g=original	!	!LO:LB:g=original	!
.	.	.	.	4f\	.	4a\	.
8C/	.	8e\	.	4g\	.	4b\	.
8BB/	.	8d\	.	.	.	.	.
4AA/	.	2e\	.	1a	.	1cc	.
4BB/	.	.	.	.	.	.	.
!	!	!	!LO:SIC:o=Al-	!	!	!	!
4C/	.	2.e\	al-	.	.	.	.
4D/	.	.	.	.	.	.	.
=68-	=68-	=68-	=68-	=68-	=68-	=68-	=68-
4E\	.	.	.	4g\	-ia	2b\	-ia
4F\	.	8d\	.	8f\	.	.	.
.	.	8c\	.	8e\	.	.	.
!	!	!	!	!	!	!	!LO:SIC:o=Al-
4G\	.	2B\	.	2d\	.	2b\	al-
4F\	.	.	.	.	.	.	.
4E\	.	2B\	-le-	2r	.	2g/	-le-
4D/	.	.	.	.	.	.	.
*	*	*	*	*	*ij	*	*
!	!	!	!	!	!LO:SIC:o=Al-	!	!
4C/	.	2.c\	-lu-	2g\	al-	2.e/	-lu-
4BB/	.	.	.	.	.	.	.
=69-	=69-	=69-	=69-	=69-	=69-	=69-	=69-
4AA/	.	.	.	4a\	-le-	.	.
4BB/	.	8B\	.	8g\	.	4d/	.
.	.	8A\	.	8f\	.	.	.
1C	.	2.Gny/	.	4e\	.	4c/	.
.	.	.	.	4f\	.	4d/	.
!	!	!	!	!	!LO:MO:mod=.	!	!
.	.	.	.	1g	-lu-	4e/	.
.	.	4A/	.	.	.	4f/	.
*	*	*custos:B	*	*	*	*	*
*	*	*xywh-#317:4526,4457,3566,721	*	*	*	*	*
!	!	!LO:LB:g=original	!	!	!	!	!
4BB/	.	4B\	.	.	.	4g/	.
4AA/	.	4c\	.	.	.	4a\	.
=70-	=70-	=70-	=70-	=70-	=70-	=70-	=70-
!	!	!	!	!	!LO:MO:null:mod=-lu-	!	!
0GG	.	4d\	.	0g	.	2b\	.
.	.	4B\	.	.	.	.	.
.	.	2e\	.	.	.	2.cc\	.
.	.	1d	.	.	.	.	.
.	.	.	.	.	.	8b\	.
.	.	.	.	.	.	8a\	.
.	.	.	.	.	.	2b\	.
=71-	=71-	=71-	=71-	=71-	=71-	=71-	=71-
!	!	!	!	!	!LO:SIC:o=-ia	!	!
0Cl	-ia.	0cl	-ia.	0el	-ia.	0ccl	-ia.
*	*	*	*	*	*Xij	*	*
==	==	==	==	==	==	==	==
*-	*-	*-	*-	*-	*-	*-	*-
!!!system-decoration: [*]
!!LO:MO:ori
!!!RDF**kern: l = terminal long
!!LO:MO:mod
!! !!!RDF**kern: i = editorial accidental
!!LO:MO:end
!!!filter-modern: shed -e "s/^custos:/Xcustos:/I" | shed -e "s/TX(.*):t=P:/tx$1:t=P:/LG" | sic -sq | modori -m | autostem -r | tie -s | humtr -p | shed -e "s/-//B" | autobeam
!!!ENC: Andrzej Gręziak
!!!END: 2022-06-30
!!!EED: Andrzej Kubiczek
!!!EEV: 2023-10-15
!!!ENC-iiif: Lidia Bialucha
!!!END-iiif: 2022-09-08
!!!ENC-modern: Andrzej Kubiczek
!!!END-modern: 2023-10-15
